X: 19
T: Opening Song of the Sun Dance (a)
C: Teton Sioux band 1911-1914
N: Derived from sioux019.krn
O: South Dakota, U.S.A.
N: Teton Sioux Music by Frances Densmore, 1918
Z: transcribed to **kern format by Craig Sapp
L: 1/8
M: 2/4
Q: 1/4=58
K: F clef=bass
%%linebreak <none>
G2 [I:setbarnb 1]| 
F4 | 
F2G/ F3/ | 
(3G C CC2 | 
C4- | 
C2D/ C3/ | 
D CB,2 | 
C F,F,2 | 
G, F,F,2- | 
F,4- | 
F,2F,2 | 
_G,4 | 
_G, F,G,2 | 
_G, F,F,2 | 
F, D,D,2 ||  
D,6 | 
F,2F,4 [I:setbarnb 15]||  
[M:2/4]F, D,F,2 | 
G, F,F,2 | 
F,4 | 
F, D,F,2 ]|:  
F< C-C2 | 
C4- | 
C2D/ C3/ | 
F CB,2 | 
C F,F,2 | 
G, F,F,2 | 
F,4- | 
F,2F,2 | 
_G,4 | 
_G, F,G,2 | 
_G, F,F,2 | 
F, D,D,2 ||  
[M:3/4]D,6 | 
F,2F,4 ||  
[M:2/4]_G, D,G,2 | 
G, F,F,2 | 
F,4- | 
F,4 | 
F4- ||  
[M:3/4]F4F/ F3/ ||  
[M:2/4](3F C CC2 | 
C4- | 
C2C/ C3/ | 
D CB,2 | 
C F,F,2 | 
G, F,F,2 | 
F,4 | 
_G,4 | 
_G,2G, F, | 
_G, F,F,2 | 
F, D,D,2 ||  
[M:3/4]D,6 | 
F,2F,4 ||  
[M:2/4]F, D,F,2 | 
G, F,F,2 |[1 
F,4 | 
F, D,F,2 :|][2 
F, F,F,2 |]  



